**kern	**silbe	**kern	**silbe	**harmony	**phrase	**leadinstrument	**rhyme	**timestamp	**harte
*ICvox	*	*ICvox	*	*M4/4	*	*	*	*	*M4/4
*VRlead	*	*VRbacking*VRresponse	*	*	*	*	*	*	*
*Hstimme	*	*Nstimme	*	*	*	*	*	*	*
*G:	*	*G:	*	*G:	*	*	*	*	*G:
*M4/4	*	*M4/4	*	*	*	*	*	*	*
*clefG2	*	*clefG2	*	*	*	*	*	*	*
r;	.	r;	.	1r;	.	r	.	0	N.C.
=1	=1	=1	=1	=1	=1	=1	=1	=1	=1
*>Letter>A2	*>Letter>A2	*>Letter>A2	*>Letter>A2	*>Letter>A2	*>Letter>A2	*>Letter>A2	*>Letter>A2	*>Letter>A2	*>Letter>A2
*>Label>Intro	*>Label>Intro	*>Label>Intro	*>Label>Intro	*>Label>Intro	*>Label>Intro	*>Label>Intro	*>Label>Intro	*>Label>Intro	*>Label>Intro
1r	.	4r	.	1Amm	newline	r	.	0.395	A:min7
.	.	4g	Do-	.	.	.	.	.	.
.	.	4g	-lang	.	.	.	.	.	.
.	.	4g	do-	.	.	.	.	.	.
=2	=2	=2	=2	=2	=2	=2	=2	=2	=2
1r	.	4a	-lang	1DM	.	r	.	1.991	D:maj
.	.	8a	do-	.	.	.	.	.	.
.	.	4a	-lang	.	.	.	.	.	.
.	.	8r	.	.	.	.	.	.	.
.	.	4r	.	.	.	.	.	.	.
=3	=3	=3	=3	=3	=3	=3	=3	=3	=3
1r	.	4r	.	1Amm	.	r	.	3.587	A:min7
.	.	4g	Do-	.	.	.	.	.	.
.	.	4g	-lang	.	.	.	.	.	.
.	.	4g	do-	.	.	.	.	.	.
=4	=4	=4	=4	=4	=4	=4	=4	=4	=4
4r	.	8a	-lang	1DM	.	r	.	5.184	D:maj
.	.	8r	.	.	.	.	.	.	.
8r	.	4r	.	.	.	.	.	.	.
[8d	He's	.	.	.	.	.	.	.	.
8d]	_	4r	.	.	.	.	.	.	.
8d	so	.	.	.	.	.	.	.	.
8B	_	4r	.	.	.	.	.	.	.
8B	fine	.	.	.	.	.	A	.	.
=5	=5	=5	=5	=5	=5	=5	=5	=5	=5
*>Letter>A	*>Letter>A	*>Letter>A	*>Letter>A	*>Letter>A	*>Letter>A	*>Letter>A	*>Letter>A	*>Letter>A	*>Letter>A
*>Label>Verse	*>Label>Verse	*>Label>Verse	*>Label>Verse	*>Label>Verse	*>Label>Verse	*>Label>Verse	*>Label>Verse	*>Label>Verse	*>Label>Verse
1A	_	4r	.	1Amm	newline	voice	.	6.78	A:min7
.	.	4g	Do-	.	.	.	.	.	.
.	.	4g	-lang	.	.	.	.	.	.
.	.	4g	do-	.	.	.	.	.	.
=6	=6	=6	=6	=6	=6	=6	=6	=6	=6
4r	.	4a	-lang	1DM	.	voice	.	8.468	D:maj
8r	.	8a	do-	.	.	.	.	.	.
[8d	Wish	4a	-lang	.	.	.	.	.	.
8d]	_	.	.	.	.	.	.	.	.
8B	he	8r	.	.	.	.	.	.	.
8B	were	4r	.	.	.	.	.	.	.
8B	mine	.	.	.	.	.	A	.	.
=7	=7	=7	=7	=7	=7	=7	=7	=7	=7
1A	_	4r	.	1Amm	.	voice	.	10.156	A:min7
.	.	4g	Do-	.	.	.	.	.	.
.	.	4g	-lang	.	.	.	.	.	.
.	.	4g	do-	.	.	.	.	.	.
=8	=8	=8	=8	=8	=8	=8	=8	=8	=8
4r	.	4a	-lang	1DM	.	voice	.	11.844	D:maj
8r	.	8a	do-	.	.	.	.	.	.
[8d	That	4a	-lang	.	.	.	.	.	.
8d]	_	.	.	.	.	.	.	.	.
8.d	hand-	8r	.	.	.	.	.	.	.
.	.	4r	.	.	.	.	.	.	.
8.B	-some	.	.	.	.	.	.	.	.
=9	=9	=9	=9	=9	=9	=9	=9	=9	=9
8A	boy	4r	.	1Amm	newline	voice	.	13.532	A:min7
8B	o-	.	.	.	.	.	.	.	.
8G	-ver	4g	Do-	.	.	.	.	.	.
8A	there	.	.	.	.	.	B	.	.
8B	_	4g	-lang	.	.	.	.	.	.
4.A	_	.	.	.	.	.	.	.	.
.	.	4g	do-	.	.	.	.	.	.
=10	=10	=10	=10	=10	=10	=10	=10	=10	=10
4r	.	4a	-lang	1DM	.	voice	.	15.193	D:maj
8r	.	8a	do-	.	.	.	.	.	.
[8d	One	4a	-lang	.	.	.	.	.	.
8d]	_	.	.	.	.	.	.	.	.
8d	with	8r	.	.	.	.	.	.	.
8A	the	4r	.	.	.	.	.	.	.
8A	wa-	.	.	.	.	.	.	.	.
=11	=11	=11	=11	=11	=11	=11	=11	=11	=11
4B	_	4r	.	1Amm	.	voice	.	16.855	A:min7
8B	-vy	4g	Do-	.	.	.	.	.	.
8A	hair	.	.	.	.	.	B	.	.
8B	_	4g	-lang	.	.	.	.	.	.
4.A	_	.	.	.	.	.	.	.	.
.	.	4g	do-	.	.	.	.	.	.
=12	=12	=12	=12	=12	=12	=12	=12	=12	=12
8r	.	4a	-lang	1DM	.	voice	.	18.517	D:maj
8d	I	.	.	.	.	.	.	.	.
8d	don't	8a	do-	.	.	.	.	.	.
8e	know	4a	-lang	.	.	.	.	.	.
8g	how	.	.	.	.	.	.	.	.
8e	I'm	8r	.	.	.	.	.	.	.
8g	gon-	4r	.	.	.	.	.	.	.
8e	-na	.	.	.	.	.	.	.	.
=13	=13	=13	=13	=13	=13	=13	=13	=13	=13
8g	do	4r	.	1GM	newline	voice	.	20.178	G:maj
2..g	it	.	.	.	.	.	.	.	.
.	.	4g	Do-	.	.	.	.	.	.
.	.	4g	-lang	.	.	.	.	.	.
.	.	4g	do-	.	.	.	.	.	.
=14	=14	=14	=14	=14	=14	=14	=14	=14	=14
8r	.	4g	-lang	1GM	.	voice	.	21.834	G:maj
8d	but	.	.	.	.	.	.	.	.
8e	I'm	8g	do-	.	.	.	.	.	.
[8a	gon-	4g	-lang	.	.	.	.	.	.
8a]	_	.	.	.	.	.	.	.	.
8g	-na	8r	.	.	.	.	.	.	.
8g	make	4r	.	.	.	.	.	.	.
8e	him	.	.	.	.	.	.	.	.
=15	=15	=15	=15	=15	=15	=15	=15	=15	=15
1g	mine	4r	.	1GM	.	voice	A	23.489	G:maj
.	.	4g	Do-	.	.	.	.	.	.
.	.	4g	-lang	.	.	.	.	.	.
.	.	4g	do-	.	.	.	.	.	.
=16	=16	=16	=16	=16	=16	=16	=16	=16	=16
8r	.	4g	-lang	1GM	.	voice	.	25.144	G:maj
8e	Be	.	.	.	.	.	.	.	.
8e	the	8g	do-	.	.	.	.	.	.
[8g	en-	4g	-lang	.	.	.	.	.	.
8g]	_	.	.	.	.	.	.	.	.
8e	-vy	8r	.	.	.	.	.	.	.
8g	of	4r	.	.	.	.	.	.	.
[8a	all	.	.	.	.	.	.	.	.
=17	=17	=17	=17	=17	=17	=17	=17	=17	=17
4a]	_	4r	.	1GM	newline	voice	.	26.799	G:maj
16g	the	4g	Do-	.	.	.	.	.	.
8.e	_	.	.	.	.	.	.	.	.
2g	girls	4g	-lang	.	.	.	.	.	.
.	.	4g	do-	.	.	.	.	.	.
=18	=18	=18	=18	=18	=18	=18	=18	=18	=18
8r	.	4g	-lang	1GM	.	voice	.	28.47	G:maj
8d	It's	.	.	.	.	.	.	.	.
8e	just	8g	do-	.	.	.	.	.	.
8d	a	4g	-lang	.	.	.	.	.	.
8g	mat-	.	.	.	.	.	.	.	.
8e	-ter	8r	.	.	.	.	.	.	.
16g	of	4r	.	.	.	.	.	.	.
8.e	_	.	.	.	.	.	.	.	.
=19	=19	=19	=19	=19	=19	=19	=19	=19	=19
8r	.	4r	.	1GM	.	voice	.	30.141	G:maj
2..g	time	.	.	.	.	.	A	.	.
.	.	4g	Do-	.	.	.	.	.	.
.	.	4g	-lang	.	.	.	.	.	.
.	.	4g	do-	.	.	.	.	.	.
=20	=20	=20	=20	=20	=20	=20	=20	=20	=20
8r	.	8g	-lang	1GM	.	voice	.	31.812	G:maj
8d	He's	8r	.	.	.	.	.	.	.
8B	a	4r	.	.	.	.	.	.	.
[8d	soft	.	.	.	.	.	.	.	.
8d]	_	4r	.	.	.	.	.	.	.
8B	spo-	.	.	.	.	.	.	.	.
8B	-ken	4r	.	.	.	.	.	.	.
8B	guy	.	.	.	.	.	A	.	.
=21	=21	=21	=21	=21	=21	=21	=21	=21	=21
*>Letter>A	*>Letter>A	*>Letter>A	*>Letter>A	*>Letter>A	*>Letter>A	*>Letter>A	*>Letter>A	*>Letter>A	*>Letter>A
*>Label>Verse	*>Label>Verse	*>Label>Verse	*>Label>Verse	*>Label>Verse	*>Label>Verse	*>Label>Verse	*>Label>Verse	*>Label>Verse	*>Label>Verse
1A	_	4r	.	1Amm	newline	voice	.	33.483	A:min7
.	.	4g	Do-	.	.	.	.	.	.
.	.	4g	-lang	.	.	.	.	.	.
.	.	4g	do-	.	.	.	.	.	.
=22	=22	=22	=22	=22	=22	=22	=22	=22	=22
4r	.	4a	-lang	1DM	.	voice	.	35.166	D:maj
8r	.	8a	do-	.	.	.	.	.	.
[8d	Al-	4a	-lang	.	.	.	.	.	.
8d]	_	.	.	.	.	.	.	.	.
8d	-so	8r	.	.	.	.	.	.	.
8B	_	4r	.	.	.	.	.	.	.
[8A	seems	.	.	.	.	.	.	.	.
=23	=23	=23	=23	=23	=23	=23	=23	=23	=23
8A]	_	4r	.	1Amm	.	voice	.	36.848	A:min7
8B	kin-	.	.	.	.	.	.	.	.
8G	-da	4g	Do-	.	.	.	.	.	.
8A	shy	.	.	.	.	.	A	.	.
8B	_	4g	-lang	.	.	.	.	.	.
4.A	_	.	.	.	.	.	.	.	.
.	.	4g	do-	.	.	.	.	.	.
=24	=24	=24	=24	=24	=24	=24	=24	=24	=24
4r	.	4a	-lang	1DM	.	voice	.	38.531	D:maj
8r	.	8a	do-	.	.	.	.	.	.
[8d	Makes	4a	-lang	.	.	.	.	.	.
8d]	_	.	.	.	.	.	.	.	.
8d	me	8r	.	.	.	.	.	.	.
8B	_	4r	.	.	.	.	.	.	.
[8A	won-	.	.	.	.	.	.	.	.
=25	=25	=25	=25	=25	=25	=25	=25	=25	=25
8A]	_	4r	.	1Amm	newline	voice	.	40.214	A:min7
8B	-der	.	.	.	.	.	c	.	.
8G	if	4g	Do-	.	.	.	.	.	.
8A	I	.	.	.	.	.	A	.	.
8B	_	4g	-lang	.	.	.	.	.	.
4.A	_	.	.	.	.	.	.	.	.
.	.	4g	do-	.	.	.	.	.	.
=26	=26	=26	=26	=26	=26	=26	=26	=26	=26
4r	.	4a	-lang	1DM	.	voice	.	41.866	D:maj
8A	should	8a	do-	.	.	.	.	.	.
[8d	e-	4a	-lang	.	.	.	.	.	.
8d]	_	.	.	.	.	.	.	.	.
8d	-ven	8r	.	.	.	.	.	.	.
8B	_	4r	.	.	.	.	.	.	.
[8A	give	.	.	.	.	.	.	.	.
=27	=27	=27	=27	=27	=27	=27	=27	=27	=27
8A]	_	4r	.	1Amm	.	voice	.	43.519	A:min7
8B	him	.	.	.	.	.	.	.	.
8G	a	4g	Do-	.	.	.	.	.	.
8A	try	.	.	.	.	.	A	.	.
8B	_	4g	-lang	.	.	.	.	.	.
4.A	_	.	.	.	.	.	.	.	.
.	.	4g	do-	.	.	.	.	.	.
=28	=28	=28	=28	=28	=28	=28	=28	=28	=28
8r	.	4a	-lang	1DM	.	voice	.	45.172	D:maj
8d	But	.	.	.	.	.	.	.	.
8e	then	8a	do-	.	.	.	.	.	.
16d	I	4a	-lang	.	.	.	.	.	.
8g	know	.	.	.	.	.	.	.	.
8e	he	.	.	.	.	.	.	.	.
.	.	8r	.	.	.	.	.	.	.
16g	can't	.	.	.	.	.	.	.	.
8e	_	4r	.	.	.	.	.	.	.
[8g	shy	.	.	.	.	.	A	.	.
=29	=29	=29	=29	=29	=29	=29	=29	=29	=29
1g]	_	4r	.	1GM	newline	voice	.	46.825	G:maj
.	.	4g	Do-	.	.	.	.	.	.
.	.	4g	-lang	.	.	.	.	.	.
.	.	4g	do-	.	.	.	.	.	.
=30	=30	=30	=30	=30	=30	=30	=30	=30	=30
8r	.	4g	-lang	1GM	.	voice	.	48.458	G:maj
8d	He	.	.	.	.	.	.	.	.
8e	can't	8g	do-	.	.	.	.	.	.
8a	shy	4g	-lang	.	.	.	A	.	.
8g	_	.	.	.	.	.	.	.	.
8g	a-	8r	.	.	.	.	.	.	.
8g	-way	4r	.	.	.	.	.	.	.
8e	for-	.	.	.	.	.	.	.	.
=31	=31	=31	=31	=31	=31	=31	=31	=31	=31
8g	-e-	4r	.	1GM	.	voice	.	50.091	G:maj
2..g	-ver	.	.	.	.	.	c	.	.
.	.	4g	Do-	.	.	.	.	.	.
.	.	4g	-lang	.	.	.	.	.	.
.	.	4g	do-	.	.	.	.	.	.
=32	=32	=32	=32	=32	=32	=32	=32	=32	=32
8r	.	4g	-lang	1GM	.	voice	.	51.723	G:maj
8d	and	.	.	.	.	.	.	.	.
8e	I'm	8g	do-	.	.	.	.	.	.
[8g	gon-	4g	-lang	.	.	.	.	.	.
8g]	_	.	.	.	.	.	.	.	.
8e	-na	8r	.	.	.	.	.	.	.
8g	make	4r	.	.	.	.	.	.	.
8e	him	.	.	.	.	.	.	.	.
=33	=33	=33	=33	=33	=33	=33	=33	=33	=33
1g	mine	4r	.	1GM	newline	voice	A	53.356	G:maj
.	.	4g	Do-	.	.	.	.	.	.
.	.	4g	-lang	.	.	.	.	.	.
.	.	4g	do-	.	.	.	.	.	.
=34	=34	=34	=34	=34	=34	=34	=34	=34	=34
8r	.	4g	-lang	1GM	.	voice	.	54.995	G:maj
8d	If	.	.	.	.	.	.	.	.
8e	it	8g	do-	.	.	.	.	.	.
8g	takes	4g	-lang	.	.	.	.	.	.
4a	_	.	.	.	.	.	.	.	.
.	.	8r	.	.	.	.	.	.	.
8g	me	4r	.	.	.	.	.	.	.
8e	for-	.	.	.	.	.	.	.	.
=35	=35	=35	=35	=35	=35	=35	=35	=35	=35
8g	-e-	4r	.	1GM	.	voice	.	56.635	G:maj
2..g	-ver	.	.	.	.	.	c	.	.
.	.	4g	Do-	.	.	.	.	.	.
.	.	4g	-lang	.	.	.	.	.	.
.	.	4g	do-	.	.	.	.	.	.
=36	=36	=36	=36	=36	=36	=36	=36	=36	=36
1r	.	8g	-lang	1GM	.	voice	.	58.274	G:maj
.	.	8r	.	.	.	.	.	.	.
.	.	4r	.	.	.	.	.	.	.
.	.	2r	.	.	.	.	.	.	.
=37	=37	=37	=37	=37	=37	=37	=37	=37	=37
*>Letter>B	*>Letter>B	*>Letter>B	*>Letter>B	*>Letter>B	*>Letter>B	*>Letter>B	*>Letter>B	*>Letter>B	*>Letter>B
*>Label>Bridge	*>Label>Bridge	*>Label>Bridge	*>Label>Bridge	*>Label>Bridge	*>Label>Bridge	*>Label>Bridge	*>Label>Bridge	*>Label>Bridge	*>Label>Bridge
4e	He's	1r	.	1CM	newline	voice	.	59.913	C:maj
8g	so	.	.	.	.	.	.	.	.
8e	_	.	.	.	.	.	.	.	.
2g	fine	.	.	.	.	.	A	.	.
=38	=38	=38	=38	=38	=38	=38	=38	=38	=38
2r	.	4.g	Oh	1CM	.	voice	.	61.573	C:maj
.	.	4.g	yeah	.	.	.	.	.	.
4r	.	.	.	.	.	.	.	.	.
8r	.	4r	.	.	.	.	.	.	.
[8a	Got-	.	.	.	.	.	.	.	.
=39	=39	=39	=39	=39	=39	=39	=39	=39	=39
8a]	_	1r	.	1CM	.	voice	.	63.234	C:maj
8g	-ta	.	.	.	.	.	.	.	.
8g	be	.	.	.	.	.	.	.	.
8e	_	.	.	.	.	.	.	.	.
2g	mine	.	.	.	.	.	A	.	.
=40	=40	=40	=40	=40	=40	=40	=40	=40	=40
2r	.	4.g	Oh	1CM	.	voice	.	64.894	C:maj
.	.	4.g	yeah	.	.	.	.	.	.
4.r	.	.	.	.	.	.	.	.	.
.	.	4r	.	.	.	.	.	.	.
[8e	Soon-	.	.	.	.	.	.	.	.
=41	=41	=41	=41	=41	=41	=41	=41	=41	=41
8e]	_	1r	.	1GM	newline	voice	.	66.554	G:maj
8d	-er	.	.	.	.	.	.	.	.
4e	or	.	.	.	.	.	.	.	.
8e	lat-	.	.	.	.	.	.	.	.
4.d	-er	.	.	.	.	.	c	.	.
=42	=42	=42	=42	=42	=42	=42	=42	=42	=42
2r	.	4.g	Oh	1GM	.	voice	.	68.206	G:maj
.	.	4.g	yeah	.	.	.	.	.	.
4.r	.	.	.	.	.	.	.	.	.
.	.	4r	.	.	.	.	.	.	.
8d	I	.	.	.	.	.	.	.	.
=43	=43	=43	=43	=43	=43	=43	=43	=43	=43
8e	hope	1r	.	1GM	.	voice	.	69.858	G:maj
8d	it's	.	.	.	.	.	.	.	.
8e	not	.	.	.	.	.	.	.	.
8d	_	.	.	.	.	.	.	.	.
8e	lat-	.	.	.	.	.	.	.	.
4.d	-er	.	.	.	.	.	c	.	.
=44	=44	=44	=44	=44	=44	=44	=44	=44	=44
2r	.	4.g	Oh	1GM	.	voice	.	71.51	G:maj
.	.	4.g	yeah	.	.	.	.	.	.
4.r	.	.	.	.	.	.	.	.	.
.	.	4r	.	.	.	.	.	.	.
8d	We've	.	.	.	.	.	.	.	.
=45	=45	=45	=45	=45	=45	=45	=45	=45	=45
8e	got-	1r	.	1CM	newline	voice	.	73.162	C:maj
8g	-ta	.	.	.	.	.	.	.	.
8g	get	.	.	.	.	.	.	.	.
8e	to-	.	.	.	.	.	.	.	.
8g	-ge-	.	.	.	.	.	(C	.	.
4.g	-ther	.	.	.	.	.	c)	.	.
=46	=46	=46	=46	=46	=46	=46	=46	=46	=46
2r	.	4.g	Oh	1CM	.	voice	.	74.802	C:maj
.	.	4.g	yeah	.	.	.	.	.	.
4.r	.	.	.	.	.	.	.	.	.
.	.	4r	.	.	.	.	.	.	.
8d	The	.	.	.	.	.	.	.	.
=47	=47	=47	=47	=47	=47	=47	=47	=47	=47
8e	soo-	1r	.	1CM	.	voice	.	76.442	C:maj
8e	-ner	.	.	.	.	.	c	.	.
8g	the	.	.	.	.	.	.	.	.
8e	_	.	.	.	.	.	.	.	.
8g	be-	.	.	.	.	.	(C	.	.
4.g	-tter	.	.	.	.	.	c)	.	.
=48	=48	=48	=48	=48	=48	=48	=48	=48	=48
2r	.	4.g	Oh	1CM	.	voice	.	78.081	C:maj
.	.	4.g	yeah	.	.	.	.	.	.
4.r	.	.	.	.	.	.	.	.	.
.	.	4r	.	.	.	.	.	.	.
8g	I	.	.	.	.	.	.	.	.
=49	=49	=49	=49	=49	=49	=49	=49	=49	=49
4a	just	1r	.	1DMm	newline	voice	.	79.721	D:7
8a	can't	.	.	.	.	.	.	.	.
8g	_	.	.	.	.	.	.	.	.
4a	wait	.	.	.	.	.	.	.	.
8r	.	.	.	.	.	.	.	.	.
8g	I	.	.	.	.	.	.	.	.
=50	=50	=50	=50	=50	=50	=50	=50	=50	=50
8a	just	1r	.	1DMm	.	voice	.	81.389	D:7
8a	can't	.	.	.	.	.	.	.	.
8g	_	.	.	.	.	.	.	.	.
4.a	wait	.	.	.	.	.	.	.	.
8r	.	.	.	.	.	.	.	.	.
8d	to	.	.	.	.	.	.	.	.
=51	=51	=51	=51	=51	=51	=51	=51	=51	=51
8f	be	1r	.	1DMm	.	voice	.	83.057	D:7
8f#	_	.	.	.	.	.	.	.	.
4e	held	.	.	.	.	.	.	.	.
8d	in	.	.	.	.	.	.	.	.
4e	his	.	.	.	.	.	.	.	.
[8d	arms	.	.	.	.	.	.	.	.
=52	=52	=52	=52	=52	=52	=52	=52	=52	=52
8d]	_	1r	.	1DMm	.	voice	.	84.725	D:7
8r	.	.	.	.	.	.	.	.	.
8r	.	.	.	.	.	.	.	.	.
[8d	I	.	.	.	.	.	.	.	.
8d]	_	.	.	.	.	.	.	.	.
8B	were	.	.	.	.	.	c	.	.
8B	a	.	.	.	.	.	.	.	.
8B	queen	.	.	.	.	.	D	.	.
=53	=53	=53	=53	=53	=53	=53	=53	=53	=53
1A	_	4r	.	.	.	.	.	.	.
=53	=53	=53	=53	=53	=53	=53	=53	=53	=53
*>Letter>A	*>Letter>A	*>Letter>A	*>Letter>A	*>Letter>A	*>Letter>A	*>Letter>A	*>Letter>A	*>Letter>A	*>Letter>A
*>Label>Verse	*>Label>Verse	*>Label>Verse	*>Label>Verse	*>Label>Verse	*>Label>Verse	*>Label>Verse	*>Label>Verse	*>Label>Verse	*>Label>Verse
.	.	.	.	1Amm	newline	voice	.	86.393	A:min7
.	.	4g	Do-	.	.	.	.	.	.
.	.	4g	-lang	.	.	.	.	.	.
.	.	4g	do-	.	.	.	.	.	.
=54	=54	=54	=54	=54	=54	=54	=54	=54	=54
8r	.	4a	-lang	1DM	.	voice	.	88.046	D:maj
8d	and	.	.	.	.	.	.	.	.
8B	he	8a	do-	.	.	.	.	.	.
[8d	asked	4a	-lang	.	.	.	.	.	.
8d]	_	.	.	.	.	.	.	.	.
8d	me	8r	.	.	.	.	.	.	.
8A	to	4r	.	.	.	.	.	.	.
8A	leave	.	.	.	.	.	D	.	.
=55	=55	=55	=55	=55	=55	=55	=55	=55	=55
4B	_	4r	.	1Amm	.	voice	.	89.7	A:min7
8G	my	4g	Do-	.	.	.	.	.	.
8A	throne	.	.	.	.	.	E	.	.
8B	_	4g	-lang	.	.	.	.	.	.
4.A	_	.	.	.	.	.	.	.	.
.	.	4g	do-	.	.	.	.	.	.
=56	=56	=56	=56	=56	=56	=56	=56	=56	=56
8r	.	4a	-lang	1DM	.	voice	.	91.354	D:maj
4d	I'd	.	.	.	.	.	.	.	.
.	.	8a	do-	.	.	.	.	.	.
8B	do	4a	-lang	.	.	.	.	.	.
8d	a-	.	.	.	.	.	.	.	.
8d	-ny-	8r	.	.	.	.	.	.	.
8B	_	4r	.	.	.	.	.	.	.
[8A	-thing	.	.	.	.	.	D	.	.
=57	=57	=57	=57	=57	=57	=57	=57	=57	=57
8A]	_	4r	.	1Amm	newline	voice	.	93.007	A:min7
8B	that	.	.	.	.	.	.	.	.
8G	he	4g	Do-	.	.	.	.	.	.
8A	asked	.	.	.	.	.	.	.	.
8B	_	4g	-lang	.	.	.	.	.	.
4.A	_	.	.	.	.	.	.	.	.
.	.	4g	do-	.	.	.	.	.	.
=58	=58	=58	=58	=58	=58	=58	=58	=58	=58
8r	.	4a	-lang	1DM	.	voice	.	94.651	D:maj
8d	A-	.	.	.	.	.	.	.	.
8B	-ny-	8a	do-	.	.	.	.	.	.
[8d	-thing	4a	-lang	.	.	.	D	.	.
8d]	_	.	.	.	.	.	.	.	.
8d	to	8r	.	.	.	.	.	.	.
8B	_	4r	.	.	.	.	.	.	.
[8A	make	.	.	.	.	.	.	.	.
=59	=59	=59	=59	=59	=59	=59	=59	=59	=59
8A]	_	4r	.	1Amm	.	voice	.	96.294	A:min7
8B	him	.	.	.	.	.	.	.	.
8G	my	4g	Do-	.	.	.	.	.	.
8A	own	.	.	.	.	.	E	.	.
8B	_	4g	-lang	.	.	.	.	.	.
4.A	_	.	.	.	.	.	.	.	.
.	.	4g	do-	.	.	.	.	.	.
=60	=60	=60	=60	=60	=60	=60	=60	=60	=60
4r	.	4a	-lang	1DM	.	voice	.	97.937	D:maj
8d	Lord	8a	do-	.	.	.	.	.	.
[8e	he's	4a	-lang	.	.	.	.	.	.
8e]	_	.	.	.	.	.	.	.	.
8g	so	8r	.	.	.	.	.	.	.
8e	_	4r	.	.	.	.	.	.	.
[8g	fine	.	.	.	.	.	A	.	.
=61	=61	=61	=61	=61	=61	=61	=61	=61	=61
*>Label>>Fadeout	*>Label>>Fadeout	*>Label>>Fadeout	*>Label>>Fadeout	*>Label>>Fadeout	*>Label>>Fadeout	*>Label>>Fadeout	*>Label>>Fadeout	*>Label>>Fadeout	*>Label>>Fadeout
4g]	_	4r	.	1GM	newline	voice	.	99.58	G:maj
4r	.	4a	So	.	.	.	.	.	.
4r	.	2g	fine	.	.	.	A	.	.
8g	So	.	.	.	.	.	.	.	.
[8e	fine	.	.	.	.	.	A	.	.
=62	=62	=62	=62	=62	=62	=62	=62	=62	=62
4e]	_	4r	.	1Em	.	voice	.	101.212	E:min
4r	.	8a	So	.	.	.	.	.	.
.	.	8g	fine	.	.	.	A	.	.
4r	.	2r	.	.	.	.	.	.	.
8e	So	.	.	.	.	.	.	.	.
[8g	fine	.	.	.	.	.	A	.	.
=63	=63	=63	=63	=63	=63	=63	=63	=63	=63
4g]	_	4r	.	1GM	.	voice	.	102.844	G:maj
4r	.	4a	So	.	.	.	.	.	.
4r	.	2g	fine	.	.	.	A	.	.
8g	So	.	.	.	.	.	.	.	.
[8e	fine	.	.	.	.	.	A	.	.
=64	=64	=64	=64	=64	=64	=64	=64	=64	=64
4e]	_	4r	.	1Em	.	voice	.	104.475	E:min
4r	.	8a	So	.	.	.	.	.	.
.	.	8g	fine	.	.	.	A	.	.
4r	.	2r	.	.	.	.	.	.	.
8e	So	.	.	.	.	.	.	.	.
[8g	fine	.	.	.	.	.	A	.	.
=65	=65	=65	=65	=65	=65	=65	=65	=65	=65
4g]	_	4r	.	1GM	newline	voice	.	106.107	G:maj
4r	.	4a	So	.	.	.	.	.	.
4r	.	2g	fine	.	.	.	A	.	.
8g	Oh	.	.	.	.	.	.	.	.
[8e	yeah	.	.	.	.	.	.	.	.
=66	=66	=66	=66	=66	=66	=66	=66	=66	=66
4e]	_	4r	.	1Em	.	voice	.	107.241	E:min
4r	.	8a	So	.	.	.	.	.	.
.	.	8g	fine	.	.	.	A	.	.
4r	.	2r	.	.	.	.	.	.	.
8e	So	.	.	.	.	.	.	.	.
[8g	fine	.	.	.	.	.	A	.	.
=67	=67	=67	=67	=67	=67	=67	=67	=67	=67
4g]	_	1r	.	1GM	.	voice	.	108.375	G:maj
4r	.	.	.	.	.	.	.	.	.
2r	.	.	.	.	.	.	.	.	.
=68	=68	=68	=68	=68	=68	=68	=68	=68	=68
1r	.	1r	.	1Em	.	voice	.	109.509	E:min
r;	.	r;	.	1r;	.	r	.	110.643	N.C.
r;	.	r;	.	1r;	.	r	.	115.644	N.C.
*-	*-	*-	*-	*-	*-	*-	*-	*-	*-
!!!BillboardChartDate: 1963/03/09
!!!BillboardPeak: 1
!!!BillboardWeeksOnChart: 15
!!!COC: The Chiffons
!!!ENC: Nathaniel Condit-Schultz
!!!EST: Awating manual error checking and editing.
!!!OTL: He's So Fine
!!!RDF**chordsym: original McGill chord annotation + (implied pitch class set, with bass pitch in first position)
!!!RDF**harmony: **recip + pitch class of root + harmonic quality
!!!RDF**leadinstrument: original McGill primary instrumentation annotation
!!!RDF**phrase: newline = linebreak in original McGill transcription
!!!RDF**timestamp: McGill audio timestamp in seconds
!!!RDT: 2017/01/12/
!!!SampleActualRank: 19
!!!SampleID#: 1292
!!!SampleTargetRank: 17
